fs/star_edit_20_regular.svg

<svg viewBox="0 0 20 20" fill="none" xmlns="http://www.w3.org/2000/svg" height="1em" width="1em">
  <path d="M10.8978 2.89923C10.531 2.15599 9.47114 2.15598 9.10433 2.89923L7.17389 6.81073L2.8573 7.43797C2.03708 7.55715 1.70956 8.56512 2.30308 9.14366L5.4266 12.1883L4.68924 16.4875C4.54913 17.3044 5.40655 17.9274 6.14018 17.5417L9.5661 15.7406C9.72634 15.3412 9.96616 14.9768 10.2726 14.6704L10.3632 14.5798C10.0953 14.4756 9.79335 14.4913 9.53572 14.6267L5.67484 16.6565L6.41221 12.3574C6.46784 12.033 6.3603 11.702 6.12461 11.4722L3.00109 8.42757L7.31769 7.80034C7.6434 7.75301 7.92496 7.54844 8.07062 7.25329L10.0011 3.3418L11.9315 7.25329C12.0772 7.54844 12.3587 7.75301 12.6844 7.80034L17.001 8.42757L16.2822 9.12823C16.7639 8.97949 17.2771 8.96046 17.7668 9.07112C18.2651 8.4847 17.9317 7.55231 17.1448 7.43797L12.8282 6.81073L10.8978 2.89923ZM15.8092 10.5481L10.9798 15.3775C10.6982 15.6591 10.4984 16.0119 10.4018 16.3982L10.0274 17.8961C9.86451 18.5475 10.4546 19.1376 11.106 18.9747L12.6039 18.6002C12.9902 18.5036 13.343 18.3039 13.6246 18.0223L18.454 13.1929C19.1843 12.4625 19.1843 11.2784 18.454 10.5481C17.7237 9.81772 16.5395 9.81772 15.8092 10.5481Z" fill="#212121"/>
</svg>

<svg viewBox="0 0 20 20" fill="none" xmlns="http://www.w3.org/2000/svg" height="1em" width="1em">
  <path d="M10.898 2.9a1 1 0 0 0-1.794 0l-1.93 3.91-4.317.628a1 1 0 0 0-.554 1.706l3.124 3.044-.738 4.3a1 1 0 0 0 1.451 1.054l3.426-1.801c.16-.4.4-.764.707-1.07l.09-.091a1 1 0 0 0-.827.047l-3.861 2.03.737-4.3a1 1 0 0 0-.287-.885L3 8.428 7.318 7.8a1 1 0 0 0 .753-.547L10 3.342l1.93 3.911a1 1 0 0 0 .753.547L17 8.428l-.719.7a2.884 2.884 0 0 1 1.485-.057 1 1 0 0 0-.622-1.633l-4.317-.627-1.93-3.912Zm4.911 7.648-4.83 4.83a2.197 2.197 0 0 0-.577 1.02l-.375 1.498a.89.89 0 0 0 1.079 1.079l1.498-.375a2.185 2.185 0 0 0 1.02-.578l4.83-4.83a1.87 1.87 0 0 0-2.645-2.644Z" fill="#212121"/>
</svg>
